X:47
T:Reel De Gasp
M:4/4
L:1/8
R:reel
K:Dmaj
|:"D"f2 ef e2 dB |FAFA  B2 A2 |"A7"g2 fg fecA |1BABc ~B2 A2 :|2"A7"B2 c2 "D"d4||
|:"A7"e2 f2 g6/2 e |"D"f2 g2 a4 |"A7"e2 f2 g2 ec |1 "(G)"BABc "A7"~B2 A2 :|2"A7"B2 c2 "D"d4 :|
